elusive/reddit.svg

<?xml version="1.0" encoding="UTF-8" standalone="no"?>
<!-- Generator: IcoMoon.io -->

<svg
   xmlns:dc="http://purl.org/dc/elements/1.1/"
   xmlns:cc="http://creativecommons.org/ns#"
   xmlns:rdf="http://www.w3.org/1999/02/22-rdf-syntax-ns#"
   xmlns:svg="http://www.w3.org/2000/svg"
   xmlns="http://www.w3.org/2000/svg"
   xmlns:sodipodi="http://sodipodi.sourceforge.net/DTD/sodipodi-0.dtd"
   xmlns:inkscape="http://www.inkscape.org/namespaces/inkscape"
   id="svg2"
   version="1.1"
   data-tags="remove-circle, cancel, close, remove, delete"
   height="1200"
   width="1200"
   data-du=""
   viewBox="0 0 1200 1200"
   inkscape:version="0.48.4 r9939"
   sodipodi:docname="reddit.svg">
  <defs
     id="defs32">
    <pattern
       id="pattern13199"
       width="811.3138"
       patternUnits="userSpaceOnUse"
       patternTransform="translate(-1692.9959,113.8855)"
       height="483.7205">
      <path
         id="path13201"
         filter="url(#filter3767)"
         d="M241.8603,83.1823H569.4535A158.678,158.678 0 0 1 728.1315,241.8603V241.8603A158.678,158.678 0 0 1 569.4535,400.5382H241.8603A158.678,158.678 0 0 1 83.1823,241.8603V241.8603A158.678,158.678 0 0 1 241.8603,83.1823" />
    </pattern>
    <mask
       id="mask13195"
       maskUnits="userSpaceOnUse">
      <path
         id="path13197"
         d="m -957.1864,582.2458 40.9492,-299.4407 -144.6017,-8.9576 -10.2373,67.822 -12.7966,11.5169 -8.9576,216.2627 -65.2627,-21.7542 14.0763,-270.0085 -74.2204,-6.3983 -11.5169,28.1525 -14.0763,225.2203 -42.2288,-8.9576 2.5593,-250.8136 -6.3983,0 -7.678,-70.3814 -33.2712,1.2797 -1.2796,29.4322 -7.678,17.9153 -2.5593,189.3898 -26.8729,33.2712 2.5593,88.2966 40.9492,19.1949 34.5508,-46.0678 284.0848,76.7797 49.9068,-21.7542"
         inkscape:connector-curvature="0"
         style="fill:#ffffff;stroke:#000000" />
    </mask>
    <filter
       id="filter13191"
       y="-0.26210001"
       x="-0.12899999"
       width="1.2579"
       height="1.5242"
       color-interpolation-filters="sRGB">
      <feGaussianBlur
         id="feGaussianBlur13193"
         stdDeviation="34.659" />
    </filter>
    <inkscape:path-effect
       id="path-effect13189" />
  </defs>
  <sodipodi:namedview
     pagecolor="#ffffff"
     bordercolor="#666666"
     borderopacity="1"
     objecttolerance="10"
     gridtolerance="10"
     guidetolerance="10"
     inkscape:pageopacity="0"
     inkscape:pageshadow="2"
     inkscape:window-width="1535"
     inkscape:window-height="876"
     id="namedview30"
     showgrid="false"
     inkscape:zoom="0.52678571"
     inkscape:cx="593.76445"
     inkscape:cy="629.17655"
     inkscape:window-x="65"
     inkscape:window-y="24"
     inkscape:window-maximized="1"
     inkscape:current-layer="svg2" />
  <metadata
     id="metadata62">
    <rdf:RDF>
      <cc:Work
         rdf:about="">
        <dc:format>image/svg+xml</dc:format>
        <dc:type
           rdf:resource="http://purl.org/dc/dcmitype/StillImage" />
        <dc:title />
      </cc:Work>
    </rdf:RDF>
  </metadata>
  <path
     style="fill:currentColor"
     inkscape:connector-curvature="0"
     d="m 799.14694,879.53974 c 13.59541,22.01484 -0.8932,31.19884 -13.23539,41.59665 -53.09648,39.52524 -127.40743,53.97328 -188.44549,54.20156 -57.10197,-1.12148 -140.47761,-14.57953 -183.40339,-54.20156 -14.66064,-11.57859 -23.41408,-30.20814 -9.45377,-42.85712 14.78533,-12.40032 28.18478,0.72914 39.70595,10.71422 49.68939,34.62329 94.53939,36.26626 153.15121,42.22689 63.41696,-3.08696 105.89813,-12.52407 160.08401,-43.48736 12.87281,-11.18789 27.54562,-21.84727 41.59664,-8.19328 z M 1018.2372,93.579192 c -47.73279,0 -88.53632,29.659918 -105.01523,71.542518 L 680.66123,108.09263 583.58684,382.90277 c -68.90791,1.68024 -133.60667,11.34235 -194.11106,28.98938 -60.50416,17.64703 -114.26369,41.18134 -161.32222,70.59282 -25.21008,-22.68914 -55.4733,-34.0425 -90.76759,-34.0425 -19.32727,0 -37.18478,3.57094 -53.571343,10.71422 C 67.428061,466.29997 52.91673,476.18685 40.311571,488.792 27.706647,501.39693 17.857271,516.09669 10.714222,532.90304 3.5714081,549.70936 1.1326699e-6,567.34069 1.1326699e-6,585.82866 1.1326699e-6,610.19805 5.6767991,632.4918 17.021254,652.66 c 11.344456,20.16797 26.644928,36.559 45.972665,49.16416 -0.840469,6.72234 -1.667109,13.63945 -2.507578,20.78273 -0.840469,7.14328 -1.253906,14.51133 -1.253906,22.07438 0,49.57947 14.059924,96.4219 42.211175,140.53948 28.15079,44.11759 66.83579,82.53845 115.9955,115.31165 49.1597,32.7731 106.3022,58.638 171.42846,77.5455 65.1265,18.9075 135.05089,28.3434 209.84044,28.3434 73.95001,0 143.7244,-9.4359 209.27067,-28.3434 65.54601,-18.9075 122.87697,-44.7724 172.03643,-77.5455 49.15969,-32.7732 87.84469,-71.19406 115.99549,-115.31165 28.1508,-44.11758 42.2114,-90.96001 42.2114,-140.53948 0,-13.44586 -1.2785,-27.31805 -3.7994,-41.60344 20.1679,-12.60516 36.146,-29.22212 47.9102,-49.81009 C 1194.097,632.68 1200,610.19782 1200,585.82843 c 0,-18.48774 -3.5709,-36.1193 -10.7142,-52.92563 -7.1433,-16.80634 -17.0302,-31.50587 -29.6353,-44.11103 -12.605,-12.60492 -27.3047,-22.49203 -44.1111,-29.63531 -16.8063,-7.14328 -34.89,-10.71422 -54.2172,-10.71422 -33.6139,0 -63.83935,11.35336 -90.72943,34.0425 C 925.21471,453.91279 873.52258,430.79285 815.53962,413.14582 757.5564,395.49879 695.37646,385.42371 628.98949,382.90254 l 79.4072,-223.10044 197.03653,46.20072 c -5e-4,0.13906 0,0.27891 0,0.41789 0,62.30602 50.49774,112.804 112.80398,112.804 62.3061,0 112.842,-50.49775 112.842,-112.804 0,-62.30603 -50.5359,-112.841986 -112.842,-112.841986 z M 598.70848,425.75988 c 68.0672,0 132.353,8.38359 192.85714,25.18994 60.50415,16.80633 113.24839,39.51328 158.20667,68.08501 44.95853,28.57196 80.48411,62.4061 106.53491,101.48181 26.0511,39.07571 39.0577,80.46635 39.0577,124.16416 0,43.69783 -13.0069,84.86228 -39.0577,123.51823 -26.0482,38.65547 -61.57521,72.26439 -106.53491,100.83588 -44.95828,28.57153 -97.70252,51.27839 -158.20667,68.08499 -60.50438,16.8069 -124.78994,25.19 -192.85714,25.19 -68.06721,0 -132.353,-8.3834 -192.85716,-25.19 C 345.34718,1020.3133 292.82795,997.60644 248.29059,969.03491 203.75325,940.46342 168.49034,906.8545 142.43956,868.19903 116.38877,829.54308 103.34393,788.37863 103.34393,744.6808 c 0,-43.69781 13.04484,-85.08845 39.09563,-124.16416 26.05078,-39.07571 61.31369,-72.90985 105.85103,-101.48181 44.53736,-28.57197 97.05659,-51.27868 157.56073,-68.08501 60.50416,-16.80635 124.78995,-25.18994 192.85716,-25.18994 z m 182.94073,169.18691 c -46.99055,0 -85.1065,37.81806 -85.1065,84.46057 0,46.64227 38.11595,84.46056 85.1065,84.46056 46.99056,0 85.06853,-37.81806 85.06853,-84.46056 0,-46.64228 -38.07797,-84.46057 -85.06853,-84.46057 z m -353.30561,1.32984 c -46.99056,0 -85.06829,37.81806 -85.06829,84.46058 0,46.64226 38.07773,84.46056 85.06829,84.46056 46.99055,0 85.10627,-37.81806 85.10627,-84.46056 0,-46.64228 -38.11595,-84.46058 -85.10627,-84.46058 z m 703.5716,108.70058 c -0.4026,0.20976 -0.7992,0.45211 -1.2159,0.75984 0.4113,-0.30656 0.8041,-0.5543 1.2159,-0.75984 z"
     id="path18251" />
</svg>

<?xml version="1.0" encoding="utf-8"?>
<!-- Generator: Adobe Illustrator 13.0.0, SVG Export Plug-In . SVG Version: 6.00 Build 14948)  -->
<!DOCTYPE svg PUBLIC "-//W3C//DTD SVG 1.1//EN" "http://www.w3.org/Graphics/SVG/1.1/DTD/svg11.dtd">
<svg version="1.1"
	 id="svg2" inkscape:version="0.48.4 r9939" sodipodi:docname="reddit.svg" xmlns:dc="http://purl.org/dc/elements/1.1/" xmlns:cc="http://creativecommons.org/ns#" xmlns:rdf="http://www.w3.org/1999/02/22-rdf-syntax-ns#" xmlns:svg="http://www.w3.org/2000/svg" xmlns:sodipodi="http://sodipodi.sourceforge.net/DTD/sodipodi-0.dtd" xmlns:inkscape="http://www.inkscape.org/namespaces/inkscape"
	 xmlns="http://www.w3.org/2000/svg" xmlns:xlink="http://www.w3.org/1999/xlink" x="0px" y="0px" width="1200px" height="1200px"
	 viewBox="0 0 1200 1200" enable-background="new 0 0 1200 1200" xml:space="preserve">
<path id="path18251" inkscape:connector-curvature="0" d="M799.146,879.54c13.596,22.015-0.893,31.198-13.235,41.597
	c-53.096,39.525-127.407,53.973-188.445,54.201c-57.102-1.121-140.478-14.579-183.403-54.201
	c-14.66-11.579-23.414-30.209-9.454-42.857c14.786-12.4,28.186,0.729,39.706,10.714c49.689,34.624,94.54,36.267,153.151,42.228
	c63.417-3.087,105.898-12.524,160.084-43.487C770.423,876.545,785.096,865.886,799.146,879.54L799.146,879.54z M1018.237,93.579
	c-47.733,0-88.536,29.66-105.016,71.542l-232.561-57.029l-97.074,274.81c-68.908,1.68-133.606,11.342-194.111,28.99
	c-60.504,17.646-114.264,41.181-161.322,70.593c-25.21-22.689-55.474-34.043-90.768-34.043c-19.327,0-37.185,3.571-53.571,10.714
	c-16.386,7.144-30.898,17.03-43.503,29.636c-12.605,12.604-22.454,27.305-29.597,44.111C3.571,549.709,0,567.341,0,585.829
	c0,24.369,5.677,46.663,17.021,66.831c11.344,20.168,26.645,36.559,45.973,49.164c-0.841,6.723-1.667,13.64-2.508,20.782
	c-0.84,7.144-1.254,14.512-1.254,22.075c0,49.579,14.06,96.422,42.211,140.539c28.15,44.117,66.835,82.538,115.995,115.312
	s106.302,58.638,171.428,77.546c65.127,18.907,135.051,28.343,209.841,28.343c73.95,0,143.725-9.436,209.271-28.343
	c65.546-18.908,122.877-44.772,172.037-77.546c49.159-32.773,87.844-71.194,115.995-115.312
	c28.15-44.117,42.211-90.96,42.211-140.539c0-13.446-1.278-27.318-3.799-41.604c20.168-12.605,36.146-29.223,47.91-49.811
	c11.764-20.588,17.667-43.069,17.667-67.439c0-18.487-3.571-36.119-10.714-52.926c-7.144-16.806-17.03-31.506-29.636-44.11
	c-12.604-12.605-27.305-22.492-44.111-29.636c-16.806-7.143-34.89-10.714-54.217-10.714c-33.614,0-63.84,11.354-90.729,34.042
	c-45.378-28.571-97.07-51.691-155.053-69.339c-57.983-17.646-120.163-27.722-186.551-30.243l79.407-223.1l197.037,46.201
	c-0.001,0.139,0,0.279,0,0.418c0,62.306,50.497,112.804,112.804,112.804c62.306,0,112.842-50.498,112.842-112.804
	S1080.543,93.579,1018.237,93.579L1018.237,93.579z M598.709,425.76c68.066,0,132.353,8.384,192.856,25.19
	c60.505,16.806,113.249,39.513,158.207,68.085c44.958,28.571,80.484,62.406,106.535,101.481
	c26.051,39.076,39.058,80.467,39.058,124.164c0,43.698-13.007,84.862-39.058,123.519c-26.049,38.655-61.575,72.265-106.535,100.836
	c-44.958,28.571-97.702,51.278-158.207,68.085c-60.504,16.807-124.79,25.189-192.856,25.189c-68.067,0-132.354-8.383-192.857-25.189
	s-113.023-39.514-157.561-68.085c-44.537-28.571-79.8-62.181-105.851-100.836c-26.051-38.656-39.096-79.82-39.096-123.519
	c0-43.697,13.045-85.088,39.096-124.164c26.051-39.075,61.314-72.91,105.851-101.481c44.538-28.572,97.057-51.279,157.561-68.085
	C466.355,434.144,530.642,425.76,598.709,425.76L598.709,425.76z M781.649,594.947c-46.991,0-85.106,37.817-85.106,84.46
	s38.115,84.461,85.106,84.461c46.99,0,85.068-37.818,85.068-84.461S828.64,594.947,781.649,594.947z M428.344,596.276
	c-46.99,0-85.068,37.818-85.068,84.461s38.078,84.46,85.068,84.46s85.106-37.817,85.106-84.46S475.334,596.276,428.344,596.276z
	 M1131.915,704.978c-0.402,0.209-0.799,0.452-1.216,0.76C1131.11,705.431,1131.504,705.183,1131.915,704.978z"/>
</svg>
